X: 0
T: Jamie Shearer
M: 2/4
L: 1/4
C: James Scott Skinner
K: D
A/ | "D".d/.c/.B/.A/ "D"dA/d/ | "G"c/d/"D"A/d/ "A".B/(e/e/)."G"g/ | 
"D".f/.e/.d/.c/ "D"dA/F/ | "G"G/B/"D"E/A/ "A"F/D/[A,/D/] :|
|| G/ | "D"F/A/d/A/ "G"B/G/"D"G/f/ | "Em"g/f/e/d/ "A"c/A/A/G/ | 
"D"F/A/d/e/ "Bm"f/d/"D"A/F/ | "A"G/E/"D"A/G/ "A"F/D/D/ G/ | 
"D"F/A/d/A/ "G"B/G/"D"G/f/ | "Em"g/f/e/d/ "A"c/A/B/c/ | 
"Bm"dc/d/ "A"B/d/"D"A/d/ | "G"c/b/a/g/ "A"f/d/d/ ||